packages/ffe-icons/icons/open/300/md/swipe_up_alt.svg

<svg xmlns="http://www.w3.org/2000/svg" height="24" viewBox="0 -960 960 960" width="24"><path d="M480.057-180.001q-78.826 0-134.441-55.575-55.615-55.575-55.615-134.425 0-71.461 45.5-123.846 45.5-52.384 114.5-63.692v-187.539l-52.925 52.924q-8.307 8.308-20.576 8.5-12.269.192-21.66-9.199-8.609-8.608-8.609-20.993 0-12.384 8.693-21.076l99.636-99.636q5.748-5.748 12.03-8.056 6.282-2.308 13.461-2.308 7.18 0 13.41 2.308 6.231 2.308 11.979 8.056l99.636 99.636q8.308 8.307 8.5 20.576.193 12.269-8.416 21.577-9.391 9.307-21.468 9.307-12.076 0-21.384-9.307l-52.309-52.309v187.539q69 11.308 114.5 63.692 45.5 52.385 45.5 123.846 0 78.85-55.558 134.425-55.558 55.575-134.384 55.575ZM480.045-240q54.186 0 92.071-37.93t37.885-92.116q0-54.186-37.93-92.071-37.93-37.884-92.116-37.884t-92.071 37.93q-37.885 37.93-37.885 92.116 0 54.185 37.93 92.07Q425.859-240 480.045-240ZM480-370.001Z"/></svg>

<svg xmlns="http://www.w3.org/2000/svg" height="24" viewBox="0 -960 960 960" width="24"><path d="M480.06-180q-78.83 0-134.44-55.58Q290-291.15 290-370q0-71.46 45.5-123.85Q381-546.23 450-557.54v-187.54l-52.92 52.93q-8.31 8.3-20.58 8.5-12.27.19-21.66-9.2-8.61-8.61-8.61-21 0-12.38 8.69-21.07l99.64-99.64q5.75-5.75 12.03-8.05 6.28-2.31 13.46-2.31 7.18 0 13.41 2.31 6.23 2.3 11.98 8.05l99.64 99.64q8.3 8.31 8.5 20.57.19 12.27-8.42 21.58-9.39 9.31-21.47 9.31-12.07 0-21.38-9.31L510-745.08v187.54q69 11.31 114.5 63.69Q670-441.46 670-370q0 78.85-55.56 134.42Q558.88-180 480.06-180Zm-.01-60q54.18 0 92.07-37.93Q610-315.86 610-370.05q0-54.18-37.93-92.07Q534.14-500 479.95-500q-54.18 0-92.07 37.93Q350-424.14 350-369.96q0 54.19 37.93 92.08Q425.86-240 480.05-240ZM480-370Z"/></svg>
